X:21062 
T:FRIEND OF MY HEART 
B:DMI.0335
Z:Nordberg/Black
R:jig
%Q:1/4=160
M:6/8
L:1/8
K:G
"A dorian" % source key = Gm
d|cBA GED|EFG A2d|ege ded|cBA GAB|
cBA GED|GEF GAB|ege dBG|BAA A2:|
E|Ace aga|efd cBA|GBd gfg|dec BAG|
Ace a2b|c'ba gab|efg aed|cAA A2:|

%%%

